!!!!SEGMENT: pl-kk--kk-i-2--005-005_anonim--missa-ii-brevis-ad-imitationem-missae-sine-nomine-agnus-dei.krn
!!!cenid: 16xx:1602
!!!COM: Anonim
!!!COM-rismID: pe30004985
!!!CDT:
!!!CNT:
!!!OPR: Missa II brevis ad imitationem missae Sine nomine
!!!OTL: Agnus Dei
!!!OMV: 005
!!!PDT:
!!!AGN: Sacred; Mass
!!!SMS-siglum: PL-Kk
!!!SMS-shelfmark: Kk.I.2
!!!SMS-shelfwork: 005-005 M
!!!SMS-variant:
!!!SMS-altvar:
!!!NIFC-rismSourceID: 300258021
!!!NIFC-islandoraID: pl-kk:750
!!!URL-pdf-islandora: https://repozytorium.nifc.pl/islandora/object/pl-kk%3A750/datastream/PDF/view
!!!URL-scan: https://polish.musicsources.pl/pl/lokalizacje/galeria/rekopisy/5828 @EN{Scan on Polish Music Herritage in Open Access Website} @PL{Skany w portalu Dziedzictwo Muzyki Polskiej w otwartym dostępie}
!!!ONB-nifc: Części mszy: Kyrie, Gloria, Credo, Sanctus, Agnus Dei; skany: C: 0014; A: 0114-0115; T: 0217-0218; B: 0317-0318;
!!!AIN: 1 alto 1 bass 1 soprn 1 tenor
!!!key: a:phr
**kern	**text	**text	**kern	**text	**kern	**text	**kern	**text
*part4	*part4	*part4	*part3	*part3	*part2	*part2	*part1	*part1
*staff4	*staff4	*staff4	*staff3	*staff3	*staff2	*staff2	*staff1	*staff1
*I"BASVS	*	*	*I"TENOR	*	*I"ALTVS	*	*I"DISCANTVS	*
*I'B	*	*	*I'T	*	*I'A	*	*I'C	*
*Ibass	*	*	*Itenor	*	*Ialto	*	*Isoprn	*
*ICvox	*	*	*ICvox	*	*ICvox	*	*ICvox	*
*clefF4	*	*	*clefC4	*	*clefC4	*	*clefC1	*
*k[]	*	*	*k[]	*	*k[]	*	*k[]	*
*a:phr	*	*	*a:phr	*	*a:phr	*	*a:phr	*
*M2/1	*	*	*M2/1	*	*M2/1	*	*M2/1	*
*met(C|)	*	*	*met(C|)	*	*met(C|)	*	*met(C|)	*
=1-	=1-	=1-	=1-	=1-	=1-	=1-	=1-	=1-
!	!	!	!	!	!LO:TX:a:t=7	!	!LO:TX:t=P:problem=kreska pseudotaktowa	!
1E	Ag-	.	1r	.	00r	.	0r	.
2E\	-nus	.	2r	.	.	.	.	.
!	!	!	!LO:TX:t=P:problem=kreska pseudotaktowa	!	!	!	!	!
2.G\	de-	.	2E/	Ag-	.	.	.	.
=2-	=2-	=2-	=2-	=2-	=2-	=2-	=2-	=2-
.	.	.	2E/	-nus	.	.	0e	Ag-
4F\	.	.	.	.	.	.	.	.
4E\	.	.	2.G/	de-	.	.	.	.
4D\	.	.	.	.	.	.	.	.
1E	.	.	.	.	.	.	.	.
.	.	.	4A/	.	.	.	.	.
.	.	.	4B/	.	.	.	.	.
!	!	!	!LO:TX:t=P:problem=kreska pseudotaktowa	!	!	!	!	!
.	.	.	4G/	.	.	.	.	.
=3-	=3-	=3-	=3-	=3-	=3-	=3-	=3-	=3-
!LO:TX:t=P:problem=kreska pseudotaktowa	!	!	!	!	!	!	!	!
1AA	-i	.	2.c\	.	0r	.	1e	-nus
.	.	.	8B/	.	.	.	.	.
.	.	.	8A/	.	.	.	.	.
2r	.	.	2B\	.	.	.	2.g/	.
*	*ij	*	*	*	*	*	*	*
!	!	!	!LO:TX:t=P:problem=kreska pseudotaktowa	!	!	!	!	!
2E\	Ag-	.	2c\	.	.	.	.	.
.	.	.	.	.	.	.	4a/	.
=4-	=4-	=4-	=4-	=4-	=4-	=4-	=4-	=4-
!	!	!	!	!	!LO:TX:t=P:problem=kreska pseudotaktowa	!	!	!
2.E\	-nus	.	2.G/	.	1r	.	4b/	.
*	*Xij	*	*	*	*	*	*	*
.	.	.	.	.	.	.	4g/	.
!	!	!	!	!	!	!	!LO:TX:t=P:problem=kreska pseudotaktowa	!
.	.	.	.	.	.	.	2cc/	.
!LO:TX:t=P:problem=kreska pseudotaktowa	!	!	!	!	!	!	!	!
4F\	.	.	4A/	.	.	.	.	.
2G\	.	.	2B/	.	2r	.	2b/	.
2A\	.	.	2c/	.	2e\	A-	1a\	.
=5-	=5-	=5-	=5-	=5-	=5-	=5-	=5-	=5-
1E	.	.	1B	.	2.e\	-gnus	.	.
.	.	.	.	.	.	.	2g/	dei
.	.	.	.	.	4d\	.	.	.
!	!	!	!LO:TX:t=P:problem=kreska pseudotaktowa	!	!	!	!LO:TX:t=P:problem=kreska pseudotaktowa	!
2F\	.	.	1A	i	2c\	.	00a\	.
!	!	!	!	!	!LO:TX:t=P::problem=kreska pseudotaktowa&colon;między nutą a kropką	!	!	!
2.D/	.	.	.	.	2.f\	.	.	.
=6-	=6-	=6-	=6-	=6-	=6-	=6-	=6-	=6-
.	.	.	2r	.	.	.	.	.
4C/	.	.	.	.	4e\	de-	.	.
4D/	.	.	2A/	Ag-	4f\	.	.	.
8C/	.	.	.	.	4d\	.	.	.
!LO:TX:t=P:problem=kreska pseudotaktowa	!	!	!	!	!	!	!	!
8BB/	.	.	.	.	.	.	.	.
!	!	!	!	!	!LO:TX:t=P:problem=kreska pseudotaktowa	!	!	!
2AA/	.	.	2A/	-nus	00e	-i	.	.
1A\	.	.	1c\	De-	.	.	.	.
=7-	=7-	=7-	=7-	=7-	=7-	=7-	=7-	=7-
.	.	.	.	.	.	.	.	.
4G\	.	.	4B/	-i	.	.	.	.
!	!	!	!LO:TX:t=P:problem=kreska pseudotaktowa	!	!	!	!	!
4F\	.	.	4A/	.	.	.	.	.
2G\	.	.	2B/	.	.	.	0r	.
*	*	*	*custos:A	*	*	*	*	*
!	!	!	!LO:TX:t=P:problem=kreska pseudotaktowa	!	!	!	!	!
1A\	.	.	2c/	.	.	.	.	.
=8-	=8-	=8-	=8-	=8-	=8-	=8-	=8-	=8-
!	!	!	!LO:LB:g=original	!	!	!	!	!
.	.	.	2A/	.	.	.	.	.
*custos:A	*	*	*	*	*	*	*	*
!LO:TX:t=P:problem=kreska pseudotaktowa	!	!	!	!	!	!	!	!
2G\	.	.	2B/	.	.	.	.	.
!LO:LB:g=original	!	!	!	!	!	!	!	!
1A	.	.	1c	.	2r	.	2r	.
*	*	*	*	*	*	*ij	*	*
!	!	!	!	!	!LO:TX:t=P:problem=kreska pseudotaktowa	!	!	!
.	.	.	.	.	2e\	Ag-	1a\	Ag-
=9-	=9-	=9-	=9-	=9-	=9-	=9-	=9-	=9-
*lig	*	*	*	*	*col	*	*	*
!	!	!	!LO:TX:t=P:problem=kreska pseudotaktowa	!	!LO:N:vis=4	!	!	!
!	!	!	!	!	!LO:N:xstem	!	!	!
1E	.	.	1B	.	2.e\	-nus	.	.
!	!	!	!	!	!	!	!LO:TX:t=P:problem=kreska pseudotaktowa	!
.	.	.	.	.	.	.	2g/	-nus
!	!	!	!	!	!LO:TX:t=P:problem=kreska pseudotaktowa	!	!	!
.	.	.	.	.	4d\	.	.	.
*	*	*	*	*	*Xcol	*	*	*
1F	.	.	2A/	.	2c\	de-	2.a/	Dei
*	*	*	*	*	*col	*	*	*
!	!	!	!	!	!LO:N:xstem	!	!	!
!	!	!	!	!	!LO:N:vis=4	!	!	!
.	.	.	1c\	.	2.f\	.	.	.
.	.	.	.	.	.	.	4g/	.
*Xlig	*	*	*	*	*	*	*	*
=10-	=10-	=10-	=10-	=10-	=10-	=10-	=10-	=10-
1D	de-	.	.	.	.	.	2a/	q(ui)
.	.	.	.	.	4e\	.	.	.
!	!	!	!	!	!	!	!LO:TX:t=P:problem=kreska pseudotaktowa	!
.	.	.	2B\	.	4f\	.	2b/	tol-
!	!	!	!	!	!LO:TX:t=P:problem=kreska pseudotaktowa	!	!	!
.	.	.	.	.	4d\	.	.	.
*	*	*	*	*	*Xcol	*	*	*
!LO:TX:t=P:problem=kreska pseudotaktowa	!	!	!	!	!LO:TX:t=P:problem=kreska pseudotaktowa	!	!	!
0.C	-i	.	1c	.	1e	-i	2g/	-lis
*	*	*	*	*	*	*Xij	*	*
.	.	.	.	.	.	.	2cc\	pec-
=11-	=11-	=11-	=11-	=11-	=11-	=11-	=11-	=11-
!	!	!	!LO:TX:t=P:problem=kreska pseudotaktowa	!	!	!	!	!
.	.	.	0G	i	2r	.	2cc\	-ca-
*	*	*	*	*	*	*	*custos:G	*
!	!	!	!	!	!	!	!LO:TX:t=P:problem=kreska pseudotaktowa	!
.	.	.	.	.	2c\	qui	2cc\	-ta
!	!	!	!	!	!	!	!LO:PB:g=original	!
.	.	.	.	.	2c\	tol-	2.g/	mu-
*	*	*	*	*	*custos:G	*	*	*
!	!	!	!	!	!LO:TX:t=P:problem=kreska pseudotaktowa	!	!	!
.	.	.	.	.	2c\	-lis	.	.
.	.	.	.	.	.	.	4a/	.
=12-	=12-	=12-	=12-	=12-	=12-	=12-	=12-	=12-
!	!	!	!	!	!LO:LB:g=original	!	!	!
2r	.	.	0r	.	4G/	pec-	4b\	.
.	.	.	.	.	4A/	.	4cc\	.
2G\	Qui	.	.	.	4B/	.	2.dd\	.
.	.	.	.	.	4c/	.	.	.
2G\	tol-	.	.	.	2d\	.	.	.
.	.	.	.	.	.	.	4cc\	.
!LO:TX:t=P:problem=kreska pseudotaktowa	!	!	!	!	!LO:TX:t=P:problem=kreska pseudotaktowa	!	!	!
2E\	-lis	.	.	.	2e\	.	1cc\	.
=13-	=13-	=13-	=13-	=13-	=13-	=13-	=13-	=13-
2F\	p(ec)-	.	2r	.	2d\	-ca-	.	.
!	!	!	!LO:TX:t=P:problem=kreska pseudotaktowa	!	!	!	!LO:TX:t=P:problem=kreska pseudotaktowa	!
2G\	-ca-	.	2G/	qui	2d\	-ta	2b/	.
!LO:TX:t=P:problem=kreska pseudotaktowa	!	!	!	!	!	!	!	!
1C	-ta	.	2G/	tol-	2c\	mun-	2cc\	.
.	.	.	2E/	-lis	1c\	.	2g/	.
=14-	=14-	=14-	=14-	=14-	=14-	=14-	=14-	=14-
2r	.	.	2F/	pec-	.	.	2a/	.
*	*ij	*	*	*	*	*	*	*
!	!	!	!	!	!LO:TX:t=P:problem=kreska pseudotaktowa	!	!	!
2G\	Qui	.	2G/	-ca-	2B/	.	2b/	.
2G\	tol-	.	2C/	.	2c\	-di	2.g/	.
*	*	*	*	*	*	*ij	*	*
!LO:TX:t=P:problem=kreska pseudotaktowa	!	!	!	!	!	!	!	!
2E\	-lis	.	1c\	-ta	2e\	qui	.	.
.	.	.	.	.	.	.	8f/	.
.	.	.	.	.	.	.	8g/	.
=15-	=15-	=15-	=15-	=15-	=15-	=15-	=15-	=15-
!	!	!	!	!	!LO:TX:t=P:problem=kreska pseudotaktowa	!	!	!
2F\	pec-	.	.	.	1d	tol-	2a/	.
!	!	!	!LO:TX:t=P:problem=kreska pseudotaktowa	!	!	!	!LO:TX:t=P:problem=kreska pseudotaktowa	!
2G\	-ca-	.	2B\	mun-	.	.	2g/	di
1.C	-ta	.	2c\	-di	2.e\	-lis	2.g/	pec-
*	*Xij	*	*	*	*	*	*	*
.	.	.	2C/	.	.	.	.	.
.	.	.	.	.	4d\	.	4f/	-ca-
=16-	=16-	=16-	=16-	=16-	=16-	=16-	=16-	=16-
.	.	.	2E/	.	2c/	pec-	4e/	-ta
.	.	.	.	.	.	.	4d/	mu-
!LO:TX:t=P:problem=kreska pseudotaktowa	!	!	!	!	!	!	!	!
2D/	.	.	2F/	.	2.f\	-ca-	2.dd\	.
*lig	*	*	*	*	*	*	*	*
1E	mun-	.	1G	.	.	.	.	.
.	.	.	.	.	4e\	.	4cc\	.
.	.	.	.	.	1e\	-ta	2.b\	.
=17-	=17-	=17-	=17-	=17-	=17-	=17-	=17-	=17-
*	*	*	*lig	*	*	*	*	*
1F	.	.	1A	.	.	.	.	.
.	.	.	.	.	.	.	4a/	.
!	!	!	!	!	!LO:TX:t=P:problem=kreska pseudotaktowa	!	!	!
.	.	.	.	.	2d\	mun-	1a	.
*Xlig	*	*	*	*	*	*	*	*
1E	.	.	1B	.	1e	.	.	.
!	!	!	!	!	!	!	!LO:TX:t=P:problem=kreska pseudotaktowa	!
.	.	.	.	.	.	.	2g/	.
*	*	*	*Xlig	*	*	*	*	*
=18-	=18-	=18-	=18-	=18-	=18-	=18-	=18-	=18-
!LO:TX:t=P:problem=kreska pseudotaktowa	!	!	!LO:TX:t=P:problem=kreska pseudotaktowa	!	!LO:TX:t=P:problem=kreska pseudotaktowa	!	!	!
1AA	-di	.	0A	.	0c	-di	2a\	.
*	*	*	*	*	*	*Xij	*	*
.	.	.	.	.	.	.	2cc\	.
2r	.	.	.	.	.	.	2.cc\	.
2A\	Mi-	.	.	.	.	.	.	.
.	.	.	.	.	.	.	4b\	.
=19-	=19-	=19-	=19-	=19-	=19-	=19-	=19-	=19-
2A\	-ſe-	.	0r	.	2r	.	4cc\	.
*	*	*	*	*	*	*	*custos:B	*
.	.	.	.	.	.	.	4a/	.
!LO:TX:t=P:problem=kreska pseudotaktowa	!	!	!	!	!	!	!LO:TX:t=P:problem=kreska pseudotaktowa	!
!	!	!	!	!	!	!	!LO:LB:g=original	!
2G\	-re-	.	.	.	2d\	Mi-	2b\	di
*custos:A	*	*	*	*	*	*	*	*
2F\	-re	.	.	.	2d\	-ſe-	2a\	mun(di)
!LO:PB:g=original	!	!	!	!	!LO:TX:t=P:problem=kreska pseudotaktowa	!	!	!
!LO:TX:t=P:problem=kreska pseudotaktowa	!	!	!	!	!	!	!	!
2.A\	no-	.	.	.	2c\	-re-	2.cc\	no-
=20-	=20-	=20-	=20-	=20-	=20-	=20-	=20-	=20-
.	.	.	2r	.	2A/	-re	.	.
4G/	.	.	.	.	.	.	4b\	.
*	*	*	*custos:c	*	*	*	*	*
!	!	!	!LO:TX:t=P:problem=kreska pseudotaktowa	!	!	!	!	!
4F/	.	.	2c\	mi-	2.f\	no-	4a/	.
!	!	!	!	!	!	!	!LO:TX:t=P:problem=kreska pseudotaktowa	!
4E/	.	.	.	.	.	.	4g/	.
!	!	!	!LO:PB:g=original	!	!	!	!	!
1F	.	.	2.c\	-ſe-	.	.	1a	.
.	.	.	.	.	4e\	.	.	.
.	.	.	.	.	4f\	.	.	.
*	*	*	*	*	*custos:e	*	*	*
!	!	!	!	!	!LO:TX:t=P:problem=kreska pseudotaktowa	!	!	!
.	.	.	4B/	-re-	4d\	.	.	.
=21-	=21-	=21-	=21-	=21-	=21-	=21-	=21-	=21-
!LO:TX:t=P:problem=kreska pseudotaktowa	!	!	!	!	!LO:PB:g=original	!	!	!
1E	-b(is)	.	4c\	-re	1e	.	2g/	.
.	.	.	4A/	no-	.	.	.	.
!	!	!	!LO:TX:t=P:problem=kreska pseudotaktowa	!	!	!	!	!
.	.	.	2B/	.	.	.	2g/	.
!LO:TX:t=P:problem=kreska pseudotaktowa	!	!	!	!	!	!	!	!
1r	.	.	2A/	.	2c\	.	2a\	.
.	.	.	2.c\	.	2.e\	.	2.a\	.
=22-	=22-	=22-	=22-	=22-	=22-	=22-	=22-	=22-
1E	mi-	.	.	.	.	.	.	.
.	.	.	4B/	.	4d\	.	4g/	.
.	.	.	4A/	.	4B/	.	1g	.
!	!	!	!LO:TX:t=P:problem=kreska pseudotaktowa	!	!LO:TX:t=P:problem=kreska pseudotaktowa	!	!	!
.	.	.	4G/	.	4c/	.	.	.
1D	-ſe-	.	1A	.	1d	.	.	.
.	.	.	.	.	.	.	2f#X/	.
=23-	=23-	=23-	=23-	=23-	=23-	=23-	=23-	=23-
!	!	!	!	!	!	!	!LO:TX:t=P:problem=kreska pseudotaktowa	!
1G	-re-	.	2.G/	.	2.B/	.	1g	bis
.	.	.	4F/	.	4c/	.	.	.
!	!	!	!	!	!	!	!LO:TX:t=P:problem=kreska pseudotaktowa	!
2F/	.	.	2D/	.	2d\	.	1r	.
!	!	!	!LO:TX:t=P:problem=kreska pseudotaktowa	!	!LO:TX:t=P:problem=kreska pseudotaktowa	!	!	!
1E\	.	.	2G/	bis	2B/	.	.	.
=24-	=24-	=24-	=24-	=24-	=24-	=24-	=24-	=24-
.	.	.	1F	.	2c\	.	1a	ij
!LO:TX:t=P:problem=kreska pseudotaktowa	!	!	!	!	!	!	!	!
2D/	.	.	.	.	2d\	.	.	.
*	*	*	*	*ij	*	*	*	*
2E/	-re	.	2.E/	mi-	2B/	.	2g/	.
2AA/	no-	.	.	.	2.e\	.	2cc\	.
.	.	.	4F/	-ſe-	.	.	.	.
=25-	=25-	=25-	=25-	=25-	=25-	=25-	=25-	=25-
2E/	.	.	2G/	-re-	.	.	2b\	.
.	.	.	.	.	4c\	.	.	.
2F/	.	.	2A/	-re	2d\	.	1a	.
1E	.	.	1B	no-	1e	bis	.	.
.	.	.	.	.	.	.	2g#X/	.
=26-	=26-	=26-	=26-	=26-	=26-	=26-	=26-	=26-
*custos:A	*	*	*custos:c	*	*	*	*	*
*	*	*	*	*	*	*	*custos:c	*
!	!	!	!	!	!	!	!LO:TX:t=P:problem=kreska pseudotaktowa	!
!LO:TX:t=P:problem=kreska pseudotaktowa	!	!	!	!	!LO:TX:t=P:problem=kreska pseudotaktowa	!	!	!
0AAl/	-bis	.	0Al\;>	bis	0el\	.	0al\	.
*	*	*	*	*Xij	*	*	*	*
=27||-	=27||-	=27||-	=27||-	=27||-	=27||-	=27||-	=27||-	=27||-
*M2/1	*	*	*	*	*M2/1	*	*M2/1	*
*met(C|)	*	*	*	*	*met(C|)	*	*met(C|)	*
!LO:TX:a:t=a 5. Vocib(us)\n2b(us) Tenorib(us):rj	!	!	!	!	!	!	!LO:TX:a:t=6	!
!LO:LB:g=original	!	!	!LO:TX:a:t=4. Vox.:rj	!	!	!	!LO:LB:g=original	!
0A	Ag-	.	0c	Ag-	0e	Ag-	00r	.
=28-	=28-	=28-	=28-	=28-	=28-	=28-	=28-	=28-
!LO:TX:t=P:problem=kreska pseudotaktowa	!	!	!	!	!	!	!	!
*	*	*	*	*	*lig	*	*	*
1G	-nus	.	1Bn	-nus	1e	-nus	.	.
1F	de-	.	1A	De-	1f,	.	.	.
*	*	*	*	*	*Xlig	*	*	*
=29-	=29-	=29-	=29-	=29-	=29-	=29-	=29-	=29-
!LO:TX:t=P:problem=kreska pseudotaktowa	!	!	!LO:TX:t=P:problem=kreska pseudotaktowa	!	!	!	!	!
*	*	*	*	*	*lig	*	*	*
0E	-i	.	0B	-i	1B	de-	0r	.
!	!	!	!	!	!LO:TX:t=P:problem=kreska pseudotaktowa	!	!	!
.	.	.	.	.	1e	-i	.	.
*	*	*	*	*	*Xlig	*	*	*
=30-	=30-	=30-	=30-	=30-	=30-	=30-	=30-	=30-
*	*	*	*	*ij	*	*ij	*	*
0r	.	.	2A/	Ag-	2.c\	Ag-	0a	Ag-
.	.	.	2A/	-nus	.	.	.	.
.	.	.	.	.	4d\	.	.	.
*	*	*	*	*	*custos:C	*	*	*
!	!	!	!	!	!LO:TX:a:t=2.	!	!	!
!	!	!	!	!	!LO:TX:t=P:problem=kreska pseudotaktowa	!	!	!
.	.	.	1c	De-	0e	-nus	.	.
=31-	=31-	=31-	=31-	=31-	=31-	=31-	=31-	=31-
*	*	*	*	*	*	*	*lig	*
2r	.	.	1B	.	.	.	1gny	-nus
*	*ij	*	*	*	*	*	*	*
!LO:TX:t=P:problem=kreska pseudotaktowa	!	!	!	!	!	!	!	!
2E\	Ag-	.	.	.	.	.	.	.
!	!	!	!	!	!LO:LB:g=original	!	!	!
2F\	-nus	.	2A/	.	2c\	de-	1a	.
!LO:TX:t=P:problem=kreska pseudotaktowa	!	!	!	!	!	!	!	!
2D/	.	.	1d\	.	2f\	-i	.	.
*	*	*	*	*	*	*Xij	*Xlig	*
=32-	=32-	=32-	=32-	=32-	=32-	=32-	=32-	=32-
1A	de-	.	.	.	2.e\	.	1cc	de-
.	.	.	2c\	.	.	.	.	.
.	.	.	.	.	4f\	.	.	.
2G\	-i	.	4d\	.	2g\	.	2b\	.
*	*Xij	*	*	*	*	*	*	*
.	.	.	4c\	.	.	.	.	.
!LO:TX:t=P:problem=kreska pseudotaktowa	!	!	!	!	!LO:TX:t=P:problem=kreska pseudotaktowa	!	!	!
2A\	.	.	4B/	.	2e\	.	1a\	.
.	.	.	4A/	.	.	.	.	.
=33-	=33-	=33-	=33-	=33-	=33-	=33-	=33-	=33-
1E	.	.	1B	.	2.e\	.	.	.
.	.	.	.	.	.	.	2g#X/	.
.	.	.	.	.	4d\	.	.	.
!	!	!	!LO:TX:t=P:problem=kreska pseudotaktowa	!	!	!	!LO:TX:t=P:problem=kreska pseudotaktowa	!
2AA/	.	.	00A	-i	2c\	.	1a	-i
*	*	*	*	*Xij	*	*	*	*
2D/	ag-	.	.	.	2d\	.	.	.
=34-	=34-	=34-	=34-	=34-	=34-	=34-	=34-	=34-
2C/	.	.	.	.	2e\	.	2r	.
!	!	!	!	!	!LO:TX:t=P:problem=kreska pseudotaktowa	!	!LO:TX:t=P:problem=kreska pseudotaktowa	!
1D	-nus	.	.	.	2d\	ag-	2a\	Ag-
.	.	.	.	.	2d\	.	4a\	-nus
.	.	.	.	.	.	.	4gny\	.
4C/	de-	.	.	.	2d\	-nus	4a\	de-
!LO:TX:t=P:problem=kreska pseudotaktowa	!	!	!	!	!	!	!LO:TX:t=P:problem=kreska pseudotaktowa	!
4BB/	.	.	.	.	.	.	4b\	.
=35-	=35-	=35-	=35-	=35-	=35-	=35-	=35-	=35-
1AA	.	.	.	.	4c\	de-	2.cc\	.
.	.	.	.	.	4d\	.	.	.
.	.	.	.	.	4e\	.	.	.
!	!	!	!	!	!LO:TX:t=P:problem=kreska pseudotaktowa	!	!	!
.	.	.	.	.	4c\	.	4b/	.
0.D	-i	.	1r	.	4d\	.	4a/	.
.	.	.	.	.	4e\	.	4g/	.
.	.	.	.	.	2.f\	.	2.a/	.
=36-	=36-	=36-	=36-	=36-	=36-	=36-	=36-	=36-
.	.	.	2r	.	.	.	.	.
.	.	.	.	.	4e\	.	4g/	.
*	*	*	*	*ij	*	*	*	*
!	!	!	!LO:TX:t=P:problem=kreska pseudotaktowa	!	!	!	!	!
.	.	.	2D/	Ag-	4d\	.	4fny/	.
!	!	!	!	!	!	!	!LO:TX:t=P:problem=kreska pseudotaktowa	!
.	.	.	.	.	4c\	.	4e/	.
!	!	!	!	!	!LO:TX:t=P:problem=kreska pseudotaktowa	!	!	!
.	.	.	4D/	-nus	1d	i	1f	.
.	.	.	4E/	.	.	.	.	.
.	.	.	4F/	.	.	.	.	.
.	.	.	4G/	.	.	.	.	.
=37-	=37-	=37-	=37-	=37-	=37-	=37-	=37-	=37-
2r	.	.	4A/	.	2r	.	2e/	i
.	.	.	4G/	.	.	.	.	.
*	*ij	*	*	*	*	*	*	*ij
!LO:TX:t=P:problem=kreska pseudotaktowa	!	!	!	!	!	!	!LO:TX:t=P:problem=kreska pseudotaktowa	!
2AA/	ag-	.	4A/	.	2.c\	qui	2e/	Ag-
!	!	!	!LO:TX:t=P:problem=kreska pseudotaktowa	!	!	!	!	!
.	.	.	4B/	.	.	.	.	.
4AA/	-nus	.	1c	De-	.	.	2.e/	-nus
4BB/	.	.	.	.	4d\	.	.	.
4C/	.	.	.	.	1e\	.	.	.
4D/	.	.	.	.	.	.	4f/	.
=38-	=38-	=38-	=38-	=38-	=38-	=38-	=38-	=38-
!	!	!	!	!	!	!	!LO:TX:b:t=P:problem=# below	!
2E/	de-	.	2B/	.	.	.	2g#X/	de-
!	!	!	!	!	!LO:TX:t=P:problem=kreska pseudotaktowa	!	!	!
2F/	.	.	2A/	.	2d\	tol-	1a	.
*custos:AA	*	*	*	*	*	*	*	*
*	*	*	*custos:A	*	*	*	*	*
1E	-i	.	1B	.	1e	-lis	.	.
*	*Xij	*	*	*	*	*	*	*
!	!	!	!	!	!	!	!LO:TX:t=P:problem=kreska pseudotaktowa	!
.	.	.	.	.	.	.	2g#X/	-i
*	*	*	*	*	*	*	*	*Xij
=39-	=39-	=39-	=39-	=39-	=39-	=39-	=39-	=39-
!LO:LB:g=original	!	!	!	!	!	!	!	!
!LO:TX:t=P:problem=kreska pseudotaktowa	!	!	!LO:LB:g=original	!	!	!	!	!
0AA	.	.	1A	-i	2c/	pec-	2a/	qui
*	*	*	*	*Xij	*	*	*	*
.	.	.	.	.	1d	.	2a/	tol-
.	.	.	2r	.	.	.	2a/	-lis
*	*	*	*	*ij	*	*	*	*
*	*	*	*	*	*custos:D	*	*custos:B	*
!	!	!	!LO:TX:t=P:problem=kreska pseudotaktowa	!	!	!	!	!
.	.	.	2A/	Ag-	2c/	-ca-	2cc\	pe-
=40-	=40-	=40-	=40-	=40-	=40-	=40-	=40-	=40-
!	!	!	!	!	!LO:LB:g=original	!	!LO:LB:g=original	!
0r	.	.	2G/	.	2d\	-ta	2b\	-cca-
.	.	.	2A/	-nus	2.f\	mu(n)-	2a\	-ta
!	!	!	!	!	!	!	!LO:TX:a:t=P:problem=♮ above	!
.	.	.	2B\	De-	.	.	1gnX	.
.	.	.	.	.	4e\	.	.	.
.	.	.	1c\	.	1e\	.	.	.
=41-	=41-	=41-	=41-	=41-	=41-	=41-	=41-	=41-
1r	.	.	.	.	.	.	2.a\	mun-
!	!	!	!	!	!LO:TX:t=P:problem=kreska pseudotaktowa	!	!	!
.	.	.	4B/	.	2d\	.	.	.
.	.	.	4A/	.	.	.	4b\	-di
!	!	!	!	!	!	!	!LO:TX:t=P:problem=kreska pseudotaktowa	!
1C	qui	.	2G/	.	1e	-di	1cc	.
.	.	.	2C/	.	.	.	.	.
=42-	=42-	=42-	=42-	=42-	=42-	=42-	=42-	=42-
!	!	!	!LO:TX:t=P:problem=kreska pseudotaktowa	!	!	!	!	!
2C/	tol-	.	1G	-i	2r	.	2r	.
*	*	*	*	*Xij	*	*	*	*ij
!LO:TX:t=P:problem=kreska pseudotaktowa	!	!	!	!	!	!	!	!
2C/	-lis	.	.	.	2e\	pec-	2g/	qui
!	!	!	!LO:TX:t=P:problem=kreska pseudotaktowa	!	!	!	!	!
2G\	pec-	.	1r	.	2.d\	-ce-	2g/	tol-
!	!	!	!	!	!	!	!LO:TX:t=P:problem=kreska pseudotaktowa	!
2G\	-ca-	.	.	.	.	.	2g/	-lis
.	.	.	.	.	4e\	-ta	.	.
=43-	=43-	=43-	=43-	=43-	=43-	=43-	=43-	=43-
2F\	-ta	.	1A	qui	0f	m(un)-	1a	pec-
1F	.	.	.	.	.	.	.	.
.	.	.	2A/	tol-	.	.	1a	-ca-
!LO:TX:t=P:problem=kreska pseudotaktowa	!	!	!	!	!	!	!	!
2D/	mun-	.	2A/	-lis	.	.	.	.
=44-	=44-	=44-	=44-	=44-	=44-	=44-	=44-	=44-
!	!	!	!	!	!LO:TX:t=P:problem=kreska pseudotaktowa	!	!	!
2E/	.	.	1c	pec-	1e	-di	2g/	-ta
2C/	.	.	.	.	.	.	2e/	.
!	!	!	!	!	!LO:TX:a:t=1.	!	!	!
!	!	!	!LO:TX:t=P:problem=kreska pseudotaktowa	!	!LO:TX:t=P:problem=kreska pseudotaktowa	!	!	!
2D/	.	.	1B	-ca-	1r	.	2f/	.
2E/	.	.	.	.	.	.	2.e/	mun-
=45-	=45-	=45-	=45-	=45-	=45-	=45-	=45-	=45-
!LO:TX:t=P:problem=kreska pseudotaktowa	!	!	!	!	!	!	!	!
1AA	-di	.	2A/	-ta	1A	qui	.	.
.	.	.	.	.	.	.	4c/	.
.	.	.	2e\	mun-	.	.	1cc	.
1r	.	.	2c\	.	2A/	tol-	.	.
!	!	!	!LO:TX:t=P:problem=kreska pseudotaktowa	!	!LO:TX:t=P:problem=kreska pseudotaktowa	!	!	!
.	.	.	2d\	.	2A/	-lis	4b\	.
!	!	!	!	!	!	!	!LO:TX:t=P:problem=kreska pseudotaktowa	!
.	.	.	.	.	.	.	4a\	.
=46-	=46-	=46-	=46-	=46-	=46-	=46-	=46-	=46-
1C	do-	[[Mi-	2.e\	.	2.c\	pec-	0g	-di
*	*	*	*	*	*	*	*	*Xij
.	.	.	4d\	.	4d\	-ca-	.	.
2C/	-na	-ſe-	4c\	.	4e\	.	.	.
.	.	.	4B\	.	4f\	-ta	.	.
2C/	no-	-re-	2c\	.	1e\	.	.	.
=47-	=47-	=47-	=47-	=47-	=47-	=47-	=47-	=47-
!	!	!	!LO:TX:t=P:problem=kreska pseudotaktowa	!	!	!	!	!
1D	-bis	-re	1A	di	.	.	2r	.
!	!	!	!	!	!	!	!LO:TX:t=P:problem=kreska pseudotaktowa	!
.	.	.	.	.	2d\	m(un)-	2a\	qui
*lig	*	*	*	*	*	*	*	*
1AA	pa-	no-	2r	.	00e\	-di	2a\	tol-
*	*	*	*	*ij	*	*	*	*
.	.	.	2A/	qui	.	.	2.cc\	-lis
=48-	=48-	=48-	=48-	=48-	=48-	=48-	=48-	=48-
1E	.	-bis]]	2A/	tol-	.	.	.	.
.	.	.	.	.	.	.	4b\	pec-
*	*	*	*custos:C	*	*	*	*	*
!	!	!	!LO:TX:t=P:problem=kreska pseudotaktowa	!	!	!	!LO:TX:t=P:problem=kreska pseudotaktowa	!
.	.	.	2c\	-lis	.	.	2a/	-cta
*Xlig	*	*	*	*	*	*	*	*
!LO:TX:t=P:problem=kreska pseudotaktowa	!	!	!LO:LB:g=original	!	!	!	!	!
1AA	-cem	.	2B\	pec-	.	.	2g#X/	.
.	.	.	2A\	-ca-	.	.	1a\	.
=49-	=49-	=49-	=49-	=49-	=49-	=49-	=49-	=49-
!LO:TX:t=P:problem=kreska pseudotaktowa	!	!	!	!	!	!	!	!
!LO:TX:a:t=1.	!	!	!	!	!	!	!	!
1r	.	.	2B\	-ta	.	.	.	.
.	.	.	2B\	mun-	.	.	2g#X/	mun-
!	!	!	!LO:TX:t=P:problem=kreska pseudotaktowa	!	!	!	!	!
2r	.	.	1A	-di	2r	.	1a	-di
*	*	*	*	*Xij	*	*	*	*
!LO:TX:t=P:problem=kreska pseudotaktowa	!	!	!	!	!LO:TX:t=P:problem=kreska pseudotaktowa	!	!	!
2A\	do-	.	.	.	2c\	Do-	.	.
=50-	=50-	=50-	=50-	=50-	=50-	=50-	=50-	=50-
!	!	!	!	!	!	!	!LO:TX:t=P:problem=kreska pseudotaktowa	!
2G\	-na	.	00r	.	2B\	-na	00e\	.
2.A\	no-	.	.	.	2.c\	.	.	.
4G\	.	.	.	.	4B/	no-	.	.
!LO:TX:t=P:problem=kreska pseudotaktowa	!	!	!	!	!LO:TX:t=P:problem=kreska pseudotaktowa	!	!	!
2F\	.	.	.	.	2A/	.	.	.
=51-	=51-	=51-	=51-	=51-	=51-	=51-	=51-	=51-
2E/	.	.	.	.	2G/	-bis	.	.
*custos:E	*	*	*	*	*custos:E	*	*	*
!LO:TX:t=P:problem=kreska pseudotaktowa	!	!	!	!	!	!	!	!
2C/	bis	.	.	.	2A/	.	.	.
!LO:TX:t=P:problem=kreska pseudotaktowa	!	!	!	!	!	!	!	!
!LO:LB:g=original	!	!	!	!	!	!	!	!
1E	pa-	.	.	.	2E/	.	.	.
.	.	.	.	.	1e\	pa-	.	.
=52-	=52-	=52-	=52-	=52-	=52-	=52-	=52-	=52-
*	*	*	*	*	*	*	*custos:A	*
0AA	.	.	1r	.	.	.	2r	.
!	!	!	!	!	!	!	!LO:LB:g=original	!
.	.	.	.	.	2A/	.	2a/	do-
!	!	!	!	!	!LO:TX:t=P:problem=kreska pseudotaktowa	!	!	!
.	.	.	2r	.	1e	-cem	2gny/	-na
!	!	!	!LO:TX:t=P:problem=kreska pseudotaktowa	!	!	!	!LO:TX:t=P:problem=kreska pseudotaktowa	!
.	.	.	2c\	do-	.	.	2a/	no-
=53-	=53-	=53-	=53-	=53-	=53-	=53-	=53-	=53-
1E	.	.	2Bn\	-na	0r	.	2f/	-bis
.	.	.	1c	no-	.	.	1e	pa-
!LO:TX:t=P:problem=kreska pseudotaktowa	!	!	!	!	!	!	!	!
1AA	-cem	.	.	.	.	.	.	.
.	.	.	4B/	.	.	.	2f/	.
.	.	.	4A/	.	.	.	.	.
=54-	=54-	=54-	=54-	=54-	=54-	=54-	=54-	=54-
*	*	*	*	*	*	*ij	*	*
0r	.	.	2.G/	-bis	1e	Do-	1.gn	.
.	.	.	4A/	.	.	.	.	.
.	.	.	2B/	pa-	2d\	-na	.	.
!	!	!	!	!	!LO:TX:t=P:problem=kreska pseudotaktowa	!	!	!
.	.	.	1c\	-cem	2e\	no-	4f/	.
!	!	!	!	!	!	!	!LO:TX:t=P:problem=kreska pseudotaktowa	!
.	.	.	.	.	.	.	4g/	.
=55-	=55-	=55-	=55-	=55-	=55-	=55-	=55-	=55-
!LO:TX:t=P:problem=kreska pseudotaktowa	!	!	!	!	!	!	!	!
1r	.	.	.	.	1d	-bis	2a/	.
!	!	!	!LO:TX:t=P:problem=kreska pseudotaktowa	!	!	!	!	!
.	.	.	2B/	.	.	.	2g/	.
2r	.	.	1c	.	2.c\	pa-	1e	-cem
*2\right	*	*	*	*	*	*	*	*
!LO:TX:t=P:problem=kreska pseudotaktowa	!	!	!	!	!	!	!	!
2A\	do-	.	.	.	.	.	.	.
.	.	.	.	.	4d\	.	.	.
=56-	=56-	=56-	=56-	=56-	=56-	=56-	=56-	=56-
!	!	!	!	!	!LO:TX:t=P:problem=kreska pseudotaktowa	!	!	!
2G\	-na	.	0r	.	1e	-cem	1r	.
*	*	*	*	*	*	*Xij	*	*
2.A\	no-	.	.	.	.	.	.	.
.	.	.	.	.	0r	.	2r	.
4G\	.	.	.	.	.	.	.	.
*	*	*	*	*	*	*	*	*ij
!LO:TX:t=P:problem=kreska pseudotaktowa	!	!	!	!	!	!	!LO:TX:t=P:problem=kreska pseudotaktowa	!
2F\	.	.	.	.	.	.	2a/	do-
=57-	=57-	=57-	=57-	=57-	=57-	=57-	=57-	=57-
2E\	.	.	2r	.	.	.	2g/	-na
*	*	*	*	*ij	*	*	*	*
!LO:TX:t=P:problem=kreska pseudotaktowa	!	!	!LO:TX:t=P:problem=kreska pseudotaktowa	!	!	!	!	!
2C/	-bis	.	2c\	do-	.	.	2e/	no-
2D\	oa-	.	2B\	-na	2r	.	2f/	-bis
*	*	*	*	*	*	*ij	*	*
!LO:TX:t=P:problem=kreska pseudotaktowa	!	!	!	!	!LO:TX:t=P:problem=kreska pseudotaktowa	!	!	!
2E\	.	.	2.c\	no-	2e\	Do-	2e/	pa-
=58-	=58-	=58-	=58-	=58-	=58-	=58-	=58-	=58-
!LO:TX:t=P:problem=kreska pseudotaktowa	!	!	!	!	!	!	!	!
1AA	-cem	.	.	.	2.c\	-na	0e	-cem
*	*	*	*	*	*	*	*	*Xij
.	.	.	4B/	.	.	.	.	.
.	.	.	1A	-bis	.	.	.	.
.	.	.	.	.	4d\	no-	.	.
!LO:TX:t=P:problem=kreska pseudotaktowa	!	!	!	!	!	!	!	!
1r	.	.	.	.	2B/	-bis	.	.
!	!	!	!LO:TX:t=P:problem=kreska pseudotaktowa	!	!	!	!	!
.	.	.	2G#X/	.	2B/	pa-	.	.
=59-	=59-	=59-	=59-	=59-	=59-	=59-	=59-	=59-
!	!	!	!	!	!LO:TX:t=P:problem=kreska pseudotaktowa	!	!	!
1AA	do-	.	2A/	pa-	1A	-cem	1r	.
.	.	.	2c\	-cem	.	.	.	.
*	*	*	*	*Xij	*	*Xij	*	*
2E\	.	.	2B\	.	00r	.	2r	.
*	*	*	*	*	*	*	*	*ij
*	*	*	*custos:G	*	*	*	*	*
!LO:TX:t=P:problem=kreska pseudotaktowa	!	!	!	!	!	!	!LO:TX:t=P:problem=kreska pseudotaktowa	!
2AA/	-na	.	2c\	.	.	.	2cc\	do-
=60-	=60-	=60-	=60-	=60-	=60-	=60-	=60-	=60-
!	!	!	!LO:LB:g=original	!	!	!	!	!
1E	no-	.	1.Gny	.	.	.	2b\	-na
.	.	.	.	.	.	.	2.cc\	no-
2C/	.	.	.	.	.	.	.	.
.	.	.	.	.	.	.	4b\	-bis
!LO:TX:t=P:problem=kreska pseudotaktowa	!	!	!	!	!	!	!	!
2F\	-bis	.	2A/	.	.	.	1a\	pa-
=61-	=61-	=61-	=61-	=61-	=61-	=61-	=61-	=61-
1E	pa-	.	1B	.	.	.	.	.
.	.	.	.	.	.	.	2g#X/	.
!	!	!	!	!	!	!	!LO:TX:a:t=6.	!
2AA,</	-cem	.	1%7Al\	.	1e	.	1%7al\	-cem
*	*	*	*	*	*	*	*	*Xij
2AA/	do-	.	.	.	.	.	.	.
=62-	=62-	=62-	=62-	=62-	=62-	=62-	=62-	=62-
2D,\	-na	.	.	.	2d\	do-	.	.
!LO:TX:t=P:problem=kreska pseudotaktowa	!	!	!	!	!	!	!	!
2AA/	no-	.	.	.	2.e\	-na	.	.
1C	-bis	.	.	.	.	.	.	.
.	.	.	.	.	4d\	no-	.	.
.	.	.	.	.	1c\	.	.	.
=63-	=63-	=63-	=63-	=63-	=63-	=63-	=63-	=63-
1D	pa-	.	.	.	.	.	.	.
!	!	!	!	!	!LO:TX:t=P:problem=kreska pseudotaktowa	!	!	!
.	.	.	.	.	2A/	-bis	.	.
0.AA;>	-cem.	.	.	.	2.c\	pa-	.	.
.	.	.	.	.	4d\	-ce(m)	.	.
=64-	=64-	=64-	=64-	=64-	=64-	=64-	=64-	=64-
!	!	!	!	!	!LO:TX:t=P:problem=kreska pseudotaktowa	!	!	!
.	.	.	.	.	0el\;>	.	.	.
=-	=-	=-	=-	=-	=-	=-	=-	=-
*-	*-	*-	*-	*-	*-	*-	*-	*-
!!!system-decoration: [(s1,s2,s3,s4)]
!!!RDF**kern: l = terminal long
!!!RDF**kern: < = below
!!!RDF**kern: > = above
!!!ENC: Marta Opryszak
!!!END: 2022-01-04
!!!ENC: Marta Chmielewska
!!!END: 2022-01-07
